X:37
T:Nancy Dawson. JJo.037
S:J.Jones MS,1801,N.Shrops.
N:Nice version of the very poular tune.
A:N Shropshire
Z:Neil Brookes 2006
M:6/8
L:1/8
Q:3/8=100
K:G
A|G2G GAB|d2B GAB|A2A AcB|A2G FED|!
G2G GAB|d2B GAB|ABG FGE|D3D2::!
B|A2A ABA|A2G FED|d2d ded|d2c BAG|!
c2Bc2d|e2fg2e|dec BcA|G3G2:|

